X:244
T: LISA GEH TRAG DAS WASSER ANHEIM
N: Z0243
O: Europa, Mitteleuropa, Deutschland, Kuhlaendchen
R: Handwerker - Lied
M: 2/4
L: 1/16
K: G
DGG2G2G2 | G4F2G2 | A4z4 |
FAA2A2A2 | A2A2G2A2 | B4z4 |
B2G2F2G2 | B2G2F2G2 | B2G2F2G2 |
g2f2g2f2 | g2e2d4 |
e2d2e2d2 | e2c2B4 |
B2c2d2c2 | B4A4 | G8

@@@ Tune index: 10002
